icons/editor/link.svg

<svg width="32" height="32" viewBox="0 0 32 32" fill="none" xmlns="http://www.w3.org/2000/svg">
<path fill-rule="evenodd" clip-rule="evenodd" d="M24.6821 7.31802C22.9248 5.56066 20.0755 5.56066 18.3182 7.31802L16.7075 8.9287L15.2933 7.51449L16.904 5.90381C19.4424 3.3654 23.5579 3.3654 26.0964 5.90381C28.6348 8.44221 28.6348 12.5578 26.0964 15.0962L22.0964 19.0962C20.8272 20.3654 19.1637 21 17.5002 21C15.7143 21 14.0966 20.2798 12.9218 19.1139L12.8821 19.0742C12.3984 18.586 12.0069 18.0385 11.7088 17.4546L11.7089 17.4546L11.6948 17.4267L13.222 15.8995C13.4423 16.5734 13.8175 17.1773 14.3054 17.6691L14.3182 17.682L14.3329 17.6966C14.7444 18.1043 15.2341 18.4332 15.7776 18.6585C17.4087 19.3334 19.3562 19.0079 20.6821 17.682L24.6821 13.682C26.4395 11.9246 26.4395 9.07538 24.6821 7.31802ZM14.5 11C12.8365 11 11.173 11.6346 9.90381 12.9038L5.90381 16.9038C3.3654 19.4422 3.3654 23.5578 5.90381 26.0962C8.44221 28.6346 12.5578 28.6346 15.0962 26.0962L16.7071 24.4853L15.2929 23.0711L13.682 24.682C11.9246 26.4393 9.07538 26.4393 7.31802 24.682C5.56066 22.9246 5.56066 20.0754 7.31802 18.318L11.318 14.318C12.1967 13.4393 13.3483 13 14.5 13C15.0862 13 15.6723 13.1138 16.2225 13.3415C16.7704 13.5687 17.2637 13.901 17.6772 14.3133L17.682 14.318L17.6908 14.3268C18.1806 14.8194 18.5572 15.4248 18.7781 16.1005L20.3054 14.5733L20.2912 14.5454L20.2913 14.5454C19.9923 13.9596 19.5993 13.4105 19.1134 12.9211L19.0784 12.8861C17.9036 11.7202 16.2859 11 14.5 11Z" fill="black"/>
</svg>

<svg width="32" height="32" viewBox="0 0 32 32" xmlns="http://www.w3.org/2000/svg">
    <path fill-rule="evenodd" d="M24.682 7.318a4.5 4.5 0 00-6.364 0l-1.61 1.61-1.415-1.414 1.611-1.61a6.5 6.5 0 019.192 9.192l-4 4A6.48 6.48 0 0117.5 21a6.48 6.48 0 01-4.578-1.886l-.04-.04a6.496 6.496 0 01-1.173-1.62l-.014-.027 1.527-1.527a4.5 4.5 0 001.083 1.77l.013.012.015.015a4.501 4.501 0 006.35-.015l4-4a4.5 4.5 0 000-6.364zM14.5 11a6.48 6.48 0 00-4.596 1.904l-4 4a6.5 6.5 0 009.192 9.192l1.611-1.61-1.414-1.415-1.611 1.611a4.5 4.5 0 01-6.364-6.364l4-4a4.505 4.505 0 014.905-.976c.547.227 1.04.559 1.454.971l.005.005.009.009a4.5 4.5 0 011.087 1.774l1.527-1.528-.014-.028a6.493 6.493 0 00-1.178-1.624l-.035-.035A6.48 6.48 0 0014.5 11z"/>
</svg>
